X:710
T:Stilly Night, The
B:Kerr's Merry Melodies Book 3
Z:Nigel Gatherer
M:4/4
L:1/8
K:A
c2 c>B A<F F<A | E>EA>c  B/c/d c2  |
c2 c>B A<F F<A | E<Ee>c  B2    A2 :|
E>AA>c B>AA>A  | B<A d>c B2    A2  |
E>AA>c B>AA>A  | e>cc>A  B/c/d c2 :|
